dist/img/asidePerson.svg

<svg width="58" height="51" viewBox="0 0 58 51" fill="none" xmlns="http://www.w3.org/2000/svg">
<path d="M24.4583 24.5C31.1804 24.5 36.625 19.0554 36.625 12.3334C36.625 5.61127 31.1804 0.166687 24.4583 0.166687C17.7363 0.166687 12.2917 5.61127 12.2917 12.3334C12.2917 19.0554 17.7363 24.5 24.4583 24.5ZM24.4583 6.25002C27.8042 6.25002 30.5417 8.98752 30.5417 12.3334C30.5417 15.6792 27.8042 18.4167 24.4583 18.4167C21.1125 18.4167 18.375 15.6792 18.375 12.3334C18.375 8.98752 21.1125 6.25002 24.4583 6.25002ZM6.20833 42.75C6.81667 40.8338 14.0254 37.64 21.295 36.8492L27.5 30.7659C26.3138 30.6442 25.4317 30.5834 24.4583 30.5834C16.3371 30.5834 0.125 34.6592 0.125 42.75V48.8334H27.5L21.4167 42.75H6.20833ZM53.6583 26.0209L38.0546 41.7463L31.7583 35.4196L27.5 39.7084L38.0546 50.3542L57.9167 30.3096L53.6583 26.0209Z" fill="white"/>
</svg>

<svg width="58" height="51" fill="none" xmlns="http://www.w3.org/2000/svg"><path d="M24.458 24.5c6.722 0 12.167-5.445 12.167-12.167C36.625 5.611 31.18.167 24.458.167c-6.722 0-12.166 5.444-12.166 12.166S17.736 24.5 24.458 24.5Zm0-18.25c3.346 0 6.084 2.738 6.084 6.083 0 3.346-2.738 6.084-6.084 6.084-3.345 0-6.083-2.738-6.083-6.084 0-3.345 2.738-6.083 6.083-6.083Zm-18.25 36.5c.609-1.916 7.817-5.11 15.087-5.9l6.205-6.084c-1.186-.122-2.068-.183-3.042-.183-8.12 0-24.333 4.076-24.333 12.167v6.083H27.5l-6.083-6.083H6.208Zm47.45-16.73L38.055 41.747l-6.297-6.326-4.258 4.288 10.555 10.646L57.917 30.31l-4.259-4.29Z" fill="#fff"/></svg>
